X:1
T: Miss Jenny Abernethie
C:
R:Strathspey
Q: 128
K:C
M:4/4
L:1/16
|:c3G E3G c3d e3c|d3f e3g fd3 d4|c3d e3c G3c e3a|g3f e3d ec3 c4|
c3G E3G c3d e3c|d3f e3g fd3 d4|c3d e3c G3c e3a|g3f e3d ec3 c4|
g3e c3g ec3 g3e|f3g agfe fd3 d4|g3e c3g ec3 g3e|f3a g3f ec3 c4|
g3e c3g ec3 g3e|f3g agfe fd3 d4|c3G c3e d3f e3g|f3a g3f ec3 c4:|
